**kern	**kern	**dynam
*part1	*part1	*part1
*staff2	*staff1	*
*I"Piano	*	*
*clefF4	*clefG2	*
*k[f#c#g#]	*k[f#c#g#]	*
=1	=1	=1
*	*^	*
8AL 8c#	4ee	8aL 8cc#	.
8C#J 8A	.	8eJ 8a	.
4E 4B	4ee)	4e 4b	.
*	*v	*v	*
=	=	=
4A 4c#	4e 4a 4cc#	<
4F# 4A 4d	4a 4dd	.
=	=	=
2C# 2A 2e	2gn 2a 2ee	.
=	=	=
(8DL 8F#	8r	[
8A 8d	(8f#L 8a	.
8D 8F#	8dd 8ff#	.
8AJ 8d	8f#J 8a	.
=	=	=
8BBL 8D	8r	.
8G#X 8d	8f#L 8g#X	.
8BB 8D	8dd 8ff#	.
8G#J) 8d	8f#J) 8g#	.
=	=	=
(8C#L 8E	(8eL 8ee	<
8F# 8c#	8f# 8a	.
8D 8B	8f# 8b	.
8BBJ 8B	8f#J 8dd	.
=	=	=
8C#L 8G#	8e#XL 8cc#	.
8D 8F#	8f# 8b	.
8C# 8G#	8e# 8cc#	.
8BBJ 8B	8f#J 8dd	.
=	=	=
8C#L 8G#	8e#XL 8cc#	.
8D 8F#	8f# 8b	.
8C# 8G#	8e# 8cc#	.
8AA#XJ) 8F# 8A#X	8f#J) 8cc# 8ff#	[
=	=	=
*^	*^	*
(8F#	4BB	(8eeL	4f# 4b	.
4B	.	8ddJ	.	.
.	4D	8cc#L	4fn 4a	.
8d)	.	8bJ)	.	.
*v	*v	*	*	*
*	*v	*v	*
=	=	=
*-	*-	*-
!!!system-decoration: {(s1,s2)}
